assets/features/payment-flow/dana.svg

<svg width="40" height="40" viewBox="0 0 40 40" fill="none" xmlns="http://www.w3.org/2000/svg">
<rect width="40" height="40" rx="8" fill="#108DE8"/>
<path fill-rule="evenodd" clip-rule="evenodd" d="M19.2427 10.0363C15.933 10.3515 13.2537 12.1016 11.6279 14.8056C10.5744 16.5639 10.0767 18.6375 10.226 20.7775C10.6076 26.0029 15.0952 30.4238 20.8354 29.9676C25.9949 29.5529 30.242 24.9163 29.8106 19.2181C29.653 17.128 28.9231 15.411 27.7618 13.8517C27.2309 13.1467 27.1313 13.1384 26.5839 12.5661C25.8954 11.8528 24.452 11.0316 23.5313 10.6667C22.3036 10.1773 20.7275 9.89532 19.2427 10.0363Z" fill="white"/>
<path fill-rule="evenodd" clip-rule="evenodd" d="M14.332 17.0866C14.2076 17.4516 14.2822 21.4743 14.2822 22.2208C14.2822 23.0253 14.1246 23.2825 15.3855 23.7138C18.7367 24.8584 22.0464 20.9766 25.3727 22.8926C25.522 22.9839 25.7128 23.1663 25.7543 22.876L25.7626 17.6921C25.7626 17.1364 25.8124 16.9622 25.4391 16.7051C22.4612 14.6315 19.2427 18.1815 16.2233 17.7833C15.1034 17.634 14.6389 17.0617 14.332 17.0866Z" fill="#108DE8"/>
</svg>

<svg xmlns="http://www.w3.org/2000/svg" width="40" height="40" fill="none" viewBox="0 0 40 40"><rect width="40" height="40" fill="#108de8" rx="8"/><path fill="#fff" fill-rule="evenodd" d="M19.243 10.036c-3.31.316-5.99 2.066-7.615 4.77-1.054 1.758-1.551 3.832-1.402 5.972.382 5.225 4.87 9.646 10.61 9.19 5.159-.415 9.406-5.052 8.975-10.75-.158-2.09-.888-3.807-2.05-5.366-.53-.705-.63-.714-1.177-1.286-.689-.713-2.132-1.534-3.053-1.9-1.227-.489-2.803-.77-4.288-.63" clip-rule="evenodd"/><path fill="#108de8" fill-rule="evenodd" d="M14.332 17.087c-.124.365-.05 4.387-.05 5.134 0 .804-.157 1.061 1.104 1.493 3.35 1.144 6.66-2.737 9.987-.821.149.09.34.273.381-.017l.009-5.184c0-.556.05-.73-.324-.987-2.978-2.073-6.196 1.477-9.216 1.078-1.12-.149-1.584-.721-1.891-.696" clip-rule="evenodd"/></svg>
